svg/u1f34a.svg

<svg viewBox="0 0 128 128" xmlns="http://www.w3.org/2000/svg">
  <path d="M4.45,78.74c3.05,28.59,23.74,44.75,59.43,45.3s49.02-16.75,54.54-25.73 c6.34-10.33,16.49-58.89-39.5-70.3c-21.39-4.36-38.01-0.8-49.47,5.62C9,45.07,3.17,66.77,4.45,78.74z" fill="#FF8E00"/>
  <path d="M114.83,11.19c-0.14-1.4-5.06-6.32-17.7-7.17S75.05,8.78,70.76,16.67 c-3.31,6.09-5.24,11.09-5.24,11.09l7.8,0.75l32.67-11.42L114.83,11.19z" fill="#5C6A23"/>
  <path d="M89.26,18.21c8.77-3.08,25.57-7.02,25.57-7.02s-2.95,6.6-8.85,12.64c-5.9,6.04-15.51,12.3-28.8,8.99 c-5.43-1.35-9.03-4.89-9.03-4.89S76.06,22.85,89.26,18.21z" fill="#767E3A"/>
  <path d="M55.91,11.86c-0.75,1.6,1.74,2.86,3.28,5.52c2.83,4.88,2.83,11.76,2.83,11.76s-6.04,0.64-5.85,5.91 c0.17,4.69,4.36,6.62,9.19,6.62c5.27,0,7.32-3.92,7.13-6.49c-0.3-3.98-4.43-5.52-4.43-5.52s0.58-9.12,0-13.68s-1.35-5.72-2.7-6.3 C64.01,9.1,56.88,9.8,55.91,11.86z" fill="#5C6A23"/>
  <path d="M18.26,77.68c3.48,1.1,6.5-2.84,10.44-10.44c2.05-3.97,6.62-9.84,8.85-12.27 c4.77-5.19,10.81-10.57,7.18-14.94c-3.88-4.66-15.2,0.27-22.62,11.27S13.18,76.08,18.26,77.68z" fill="#FFE265"/>
  <path d="M84.04,41.09c-0.57,2.28,0.43,4.21,2.11,4.35c2.02,0.17,3.02-1.77,3.06-3.75 c0.03-1.6-1.03-2.67-2.41-2.8C85.41,38.77,84.38,39.71,84.04,41.09z" fill="#FF6110"/>
  <path d="M97.65,50.91c-1.49,1.6-1.65,4.67,0.26,5.86c2.15,1.34,4.39-0.43,5.13-1.94 c0.58-1.19,0.9-3.13-0.47-4.39C100.92,48.93,98.85,49.62,97.65,50.91z" fill="#FF6110"/>
  <path d="M106.81,57.58c-0.38,1.92,0.43,4.12,2.47,4.43s3.42-1.67,3.54-3.13c0.16-1.84-0.56-3.32-2.18-3.94 C109.02,54.3,107.15,55.84,106.81,57.58z" fill="#FF6110"/>
  <path d="M107.99,67.07c-1.35-0.66-4.02-0.11-4.93,3.09c-0.74,2.6,0.11,5.12,2,5.58 c2.54,0.61,4.22-1.36,4.65-3.58C110.2,69.67,109.55,67.84,107.99,67.07z" fill="#FF6110"/>
  <path d="M99.37,88.34c1.9,1.46,1.06,3.99-0.39,5.47c-1.59,1.64-3.96,1.81-5.13,0.65 c-1.16-1.16-0.82-3.53,0.82-5.17S98.35,87.55,99.37,88.34z" fill="#FF6110"/>
  <path d="M74.17,105.87c0.77,1.58-0.34,3.62-1.81,4.69c-1.17,0.86-4.18,1.77-5.6-0.3 c-1.17-1.7-0.3-3.49,1.64-4.95C70.34,103.85,73.31,104.11,74.17,105.87z" fill="#FF6110"/>
</svg>

<svg viewBox="0 0 128 128" xmlns="http://www.w3.org/2000/svg">
  <defs/>
  <path d="M4.45,78.74 C7.5,107.33 28.19,123.49 63.88,124.04 C99.57,124.59 112.9,107.29 118.42,98.31 C124.76,87.98 134.91,39.42 78.92,28.01 C57.53,23.65 40.91,27.21 29.45,33.63 C9,45.07 3.17,66.77 4.45,78.74 Z" fill="#FF8E00"/>
  <path d="M114.83,11.19 C114.69,9.79 109.77,4.87 97.13,4.02 C84.49,3.17 75.05,8.78 70.76,16.67 C67.45,22.76 65.52,27.76 65.52,27.76 L73.32,28.51 L105.99,17.09 L114.83,11.19 Z" fill="#5C6A23"/>
  <path d="M89.26,18.21 C98.03,15.13 114.83,11.19 114.83,11.19 C114.83,11.19 111.88,17.79 105.98,23.83 C100.08,29.87 90.47,36.13 77.18,32.82 C71.75,31.47 68.15,27.93 68.15,27.93 C68.15,27.93 76.06,22.85 89.26,18.21 Z" fill="#767E3A"/>
  <path d="M55.91,11.86 C55.16,13.46 57.65,14.72 59.19,17.38 C62.02,22.26 62.02,29.14 62.02,29.14 C62.02,29.14 55.98,29.78 56.17,35.05 C56.34,39.74 60.53,41.67 65.36,41.67 C70.63,41.67 72.68,37.75 72.49,35.18 C72.19,31.2 68.06,29.66 68.06,29.66 C68.06,29.66 68.64,20.54 68.06,15.98 C67.48,11.42 66.71,10.26 65.36,9.68 C64.01,9.1 56.88,9.8 55.91,11.86 Z" fill="#5C6A23"/>
  <path d="M18.26,77.68 C21.74,78.78 24.76,74.84 28.7,67.24 C30.75,63.27 35.32,57.4 37.55,54.97 C42.32,49.78 48.36,44.4 44.73,40.03 C40.85,35.37 29.53,40.3 22.11,51.3 C14.69,62.3 13.18,76.08 18.26,77.68 Z" fill="#FFE265"/>
  <path d="M84.04,41.09 C83.47,43.37 84.47,45.3 86.15,45.44 C88.17,45.61 89.17,43.67 89.21,41.69 C89.24,40.09 88.18,39.02 86.8,38.89 C85.41,38.77 84.38,39.71 84.04,41.09 Z" fill="#FF6110"/>
  <path d="M97.65,50.91 C96.16,52.51 96,55.58 97.91,56.77 C100.06,58.11 102.3,56.34 103.04,54.83 C103.62,53.64 103.94,51.7 102.57,50.44 C100.92,48.93 98.85,49.62 97.65,50.91 Z" fill="#FF6110"/>
  <path d="M106.81,57.58 C106.43,59.5 107.24,61.7 109.28,62.01 C111.32,62.32 112.7,60.34 112.82,58.88 C112.98,57.04 112.26,55.56 110.64,54.94 C109.02,54.3 107.15,55.84 106.81,57.58 Z" fill="#FF6110"/>
  <path d="M107.99,67.07 C106.64,66.41 103.97,66.96 103.06,70.16 C102.32,72.76 103.17,75.28 105.06,75.74 C107.6,76.35 109.28,74.38 109.71,72.16 C110.2,69.67 109.55,67.84 107.99,67.07 Z" fill="#FF6110"/>
  <path d="M99.37,88.34 C101.27,89.8 100.43,92.33 98.98,93.81 C97.39,95.45 95.02,95.62 93.85,94.46 C92.69,93.3 93.03,90.93 94.67,89.29 C96.31,87.65 98.35,87.55 99.37,88.34 Z" fill="#FF6110"/>
  <path d="M74.17,105.87 C74.94,107.45 73.83,109.49 72.36,110.56 C71.19,111.42 68.18,112.33 66.76,110.26 C65.59,108.56 66.46,106.77 68.4,105.31 C70.34,103.85 73.31,104.11 74.17,105.87 Z" fill="#FF6110"/>
</svg>
